X:160
T: Die Rabenmutter
N: Q1114a
O: Osteuropa, Ungarn
N: Melodievergleich zu Q0114Y und Z, anderes Lied.
R: ???
M: 3/4
L: 1/8
K: G
DDD | G2D2B,D | E2Dz
GB | A3GFC | E2D
DDG | B2A2cB | A3
GFE | D3DEF | G3

@@@ Tune index: 1453
